X: 37236
T: Siun's
R: reel
M: 4/4
K: Emajor
(3Bcd|e2 BA GBBG|AccB GBcd|e2 BA GBeg|fgaf geed|
e2 BA GBBG|AccB GBB2|efge agec|Bdfa geeG||
AccA GBBG|AFFA GEEG|AccB GB (3Bcd|ecBA GEEG|
AccA GBBG|~F3 G ABcd|efge agec|Bdfa geeg||
fBBA ~B3 e|fBgB agfa|geed e3 f|gebg efga|
fB~B2 fBbB|ge (3eee gebg|fBBg afge|fbbg agfd||

